public/images/poses-lg/HalfLotusTree.svg

<svg width="800" height="800" fill="none" xmlns="http://www.w3.org/2000/svg"><path d="M444 359.528s25.437 49.051 30.215 51.438c4.778 2.389 28.662 11.943 33.441 21.498 4.776 9.554-14.332 16.719-14.332 16.719s-31.05-16.719-35.829-35.828c-4.777-19.109-27.303-37.863-27.303-37.863L444 359.528Z" fill="#fff" stroke="#000" stroke-width="5" stroke-miterlimit="10"/><path d="M444 359.528s25.437 49.051 30.215 51.438c4.778 2.389 28.662 11.943 33.441 21.498 4.776 9.554-14.332 16.719-14.332 16.719s-31.05-16.719-35.829-35.828c-4.777-19.109-27.303-37.863-27.303-37.863L444 359.528Z" stroke="#000" stroke-width="5" stroke-miterlimit="10"/><path d="M354.788 222.27s-9.556-2.388-16.72 2.389c-7.166 4.777-9.555 21.497-9.555 38.217s26.275 48.443 26.275 48.443 28.662-50.832 0-89.049Z" fill="#fff" stroke="#000" stroke-width="5" stroke-miterlimit="10"/><path d="M354.788 222.27s-9.556-2.388-16.72 2.389c-7.166 4.777-9.555 21.497-9.555 38.217s26.275 48.443 26.275 48.443 28.662-50.832 0-89.049Z" stroke="#000" stroke-width="5" stroke-miterlimit="10"/><path d="m400.903 410.085 52.549-19.109s-11.943-26.275-9.554-45.383c2.388-19.109 14.331-62.103 14.331-62.103s-11.943-11.943-11.943-31.051c0-19.109 4.776-31.051 4.776-31.051s-23.885 0-33.44-14.332c-9.555-14.331 0-52.548 0-52.548h-33.441v4.777s2.388 23.885 0 40.605c-2.027 14.187-19.109 21.497-28.662 21.497 0 0 4.776 16.72 4.776 33.44s-12.673 29.545-12.673 29.545 12.673 46.889 12.673 61.221c0 14.332-11.942 45.383-11.942 45.383l26.274 26.275 26.276-7.166Z" fill="#fff" stroke="#000" stroke-width="5" stroke-miterlimit="10"/><path d="m400.903 410.085 52.549-19.109s-11.943-26.275-9.554-45.383c2.388-19.109 14.331-62.103 14.331-62.103s-11.943-11.943-11.943-31.051c0-19.109 4.776-31.051 4.776-31.051s-23.885 0-33.44-14.332c-9.555-14.331 0-52.548 0-52.548h-33.441v4.777s2.388 23.885 0 40.605c-2.027 14.187-19.109 21.497-28.662 21.497 0 0 4.776 16.72 4.776 33.44s-12.673 29.545-12.673 29.545 12.673 46.889 12.673 61.221c0 14.332-11.942 45.383-11.942 45.383l26.274 26.275 26.276-7.166Z" stroke="#000" stroke-width="5" stroke-miterlimit="10"/><path d="M451.064 221.388c11.943 0 23.885 19.109 31.051 54.937 7.551 37.767 16.719 76.434 9.554 90.766-7.164 14.332-85.988-52.549-88.378-62.103V269.16c0-4.777 0-9.554 2.39-9.554 4.777 0 5.29 12.13 7.166 21.497 2.388 11.942 2.388 16.72 4.777 21.497 4.532 9.064 42.994 26.275 50.16 31.052l-9.555-50.16a36.947 36.947 0 0 1-17.24-34.399 36.799 36.799 0 0 1 3.049-11.899l7.026-15.806Z" fill="#fff" stroke="#000" stroke-width="5" stroke-miterlimit="10"/><path d="M451.064 221.388c11.943 0 23.885 19.109 31.051 54.937 7.551 37.767 16.719 76.434 9.554 90.766-7.164 14.332-85.988-52.549-88.378-62.103V269.16c0-4.777 0-9.554 2.39-9.554 4.777 0 5.29 12.13 7.166 21.497 2.388 11.942 2.388 16.72 4.777 21.497 4.532 9.064 42.994 26.275 50.16 31.052l-9.555-50.16a36.947 36.947 0 0 1-17.24-34.399 36.799 36.799 0 0 1 3.049-11.899l7.026-15.806Z" stroke="#000" stroke-width="5" stroke-miterlimit="10"/><path d="M364.342 611.606c-24.941 8.313-31.488-21.678-33.018-35.772a233.673 233.673 0 0 0-1.173-9.074c-7.234-48.961 18.202-175.783 18.202-175.783s29.976 6.913 53.68 7.154c21.439-.241 51.418-7.154 51.418-7.154s7.167 14.332 11.943 45.382c4.777 31.052 0 90.766-7.167 133.76-4.392 26.341-16.72 69.268-19.109 97.931-2.388 28.663-7.165 66.881-7.165 76.434 0 9.555 4.775 31.051 7.165 38.217 2.389 7.167-4.775 11.944-14.331 11.944-9.554 0-21.498 0-19.109-9.555 2.388-9.555 2.388-14.331 2.388-26.274 0-11.944-2.388-88.377-2.388-107.486 0-19.108-2.389-83.513-2.389-81.21.002-.001-17.45 34.321-38.947 41.486Z" fill="#fff" stroke="#000" stroke-width="5" stroke-miterlimit="10"/><path d="M364.342 611.606c-24.941 8.313-31.488-21.678-33.018-35.772a233.673 233.673 0 0 0-1.173-9.074c-7.234-48.961 18.202-175.783 18.202-175.783s29.976 6.913 53.68 7.154c21.439-.241 51.418-7.154 51.418-7.154s7.167 14.332 11.943 45.382c4.777 31.052 0 90.766-7.167 133.76-4.392 26.341-16.72 69.268-19.109 97.931-2.388 28.663-7.165 66.881-7.165 76.434 0 9.555 4.775 31.051 7.165 38.217 2.389 7.167-4.775 11.944-14.331 11.944-9.554 0-21.498 0-19.109-9.555 2.388-9.555 2.388-14.331 2.388-26.274 0-11.944-2.388-88.377-2.388-107.486 0-19.108-2.389-83.513-2.389-81.21.002-.001-17.45 34.321-38.947 41.486ZM365.415 219.621c13.989 11.322 35.485 11.322 35.485 11.322s21.69 1.241 37.122-11.322" stroke="#000" stroke-width="5" stroke-miterlimit="10"/><path d="M407.507 732.154c7.726 2.777 21.309 1.999 25.267 0" stroke="#000" stroke-width="5" stroke-miterlimit="10"/><path d="M364.342 561.446s4.777-23.887 62.104-54.937c0 0 19.109-11.943 21.497-23.886 2.388-11.943 2.388-35.828 14.332-31.051a26.92 26.92 0 0 0 23.028-1.446c5.052-2.794 10.859-10.718 15.189-12.885 9.554-4.776 31.051-9.554 16.72 11.943-12.499 18.746-31.051 31.051-40.606 40.605C467.052 499.343 402.56 571 402.56 571" fill="#fff"/><path d="M364.342 561.446s4.777-23.887 62.104-54.937c0 0 19.109-11.943 21.497-23.886 2.388-11.943 2.388-35.828 14.332-31.051a26.92 26.92 0 0 0 23.028-1.446c5.052-2.794 10.859-10.718 15.189-12.885 9.554-4.776 31.051-9.554 16.72 11.943-12.499 18.746-31.051 31.051-40.606 40.605C467.052 499.343 402.56 571 402.56 571" stroke="#000" stroke-width="5" stroke-miterlimit="10"/><path d="M364.342 561.446s4.777-23.887 62.104-54.937c0 0 19.109-11.943 21.497-23.886 2.388-11.943 2.388-35.828 14.332-31.051a26.92 26.92 0 0 0 23.028-1.446c5.052-2.794 10.859-10.718 15.189-12.885 9.554-4.776 31.051-9.554 16.72 11.943-12.499 18.746-31.051 31.051-40.606 40.605C467.052 499.343 402.56 571 402.56 571M403.291 520.442l-.735-42.595M403.291 520.442l-.735-42.595M347.622 284.372l-4.777-11.943M347.622 284.372l-4.777-11.943" stroke="#000" stroke-width="5" stroke-miterlimit="10"/><path d="M373.261 112.685c-17.235 35.726 9.971 78.636 25.626 78.842 15.651.207 43.978-41.97 27.691-78.137-10.268-22.8-42.454-23.222-53.317-.705Z" fill="#fff" stroke="#000" stroke-width="5" stroke-miterlimit="10"/><path d="M373.261 112.685c-17.235 35.726 9.971 78.636 25.626 78.842 15.651.207 43.978-41.97 27.691-78.137-10.268-22.8-42.454-23.222-53.317-.705Z" stroke="#000" stroke-width="5" stroke-miterlimit="10"/><path d="M500.424 155.703c-13.742-7.549-10.258-17.224-22.449-26.899-12.195-9.678-27.295-3.142-33.675-18.775-6.319-15.489-26.906-24.332-44.85-24.117h-.055c-17.943-.215-38.53 8.628-44.846 24.117-6.377 15.633-21.483 9.097-33.673 18.775-12.193 9.675-8.71 19.35-22.451 26.899-13.741 7.549-14.859 6.851-14.322 12.773.793 8.741 32.043 5.283 55.476 5.881 4.591.119 21.324 4.768 25.798 5.818 9.151 2.143 20.904 1.838 21.146-1.442.39-5.225-1.288-17.656-4.852-24.019-3.568-6.363-10.93-4.308-10.93-13.643 0-8.71 3.578-5.321 11.798-13.065 7.252-6.828 14.511-14.737 16.886-21.159 2.373 6.421 9.633 14.331 16.883 21.159 8.221 7.744 11.8 4.355 11.8 13.065 0 9.335-7.364 7.279-10.933 13.643-3.565 6.363-5.24 18.794-4.852 24.019.245 3.28 12.001 3.585 21.15 1.442 4.474-1.05 21.203-5.699 25.801-5.818 23.431-.598 54.679 2.86 55.473-5.881.535-5.922-.582-5.225-14.323-12.773Z" fill="#040004" stroke="#000" stroke-width="5" stroke-miterlimit="10"/><path d="M432.774 501.977s13.255 3.858 16.002 17.928" stroke="#000" stroke-width="5" stroke-miterlimit="10"/></svg>

<svg width="800" height="800" viewBox="0 0 800 800" fill="none" xmlns="http://www.w3.org/2000/svg">
<path d="M444 359.528C444 359.528 469.437 408.579 474.215 410.966C478.993 413.355 502.877 422.909 507.656 432.464C512.432 442.018 493.324 449.183 493.324 449.183C493.324 449.183 462.274 432.464 457.495 413.355C452.718 394.246 430.192 375.492 430.192 375.492L444 359.528Z" fill="white" stroke="black" stroke-width="5" stroke-miterlimit="10"/>
<path d="M444 359.528C444 359.528 469.437 408.579 474.215 410.966C478.993 413.355 502.877 422.909 507.656 432.464C512.432 442.018 493.324 449.183 493.324 449.183C493.324 449.183 462.274 432.464 457.495 413.355C452.718 394.246 430.192 375.492 430.192 375.492L444 359.528Z" stroke="black" stroke-width="5" stroke-miterlimit="10"/>
<path d="M354.788 222.27C354.788 222.27 345.232 219.882 338.068 224.659C330.902 229.436 328.513 246.156 328.513 262.876C328.513 279.596 354.788 311.319 354.788 311.319C354.788 311.319 383.45 260.487 354.788 222.27Z" fill="white" stroke="black" stroke-width="5" stroke-miterlimit="10"/>
<path d="M354.788 222.27C354.788 222.27 345.232 219.882 338.068 224.659C330.902 229.436 328.513 246.156 328.513 262.876C328.513 279.596 354.788 311.319 354.788 311.319C354.788 311.319 383.45 260.487 354.788 222.27Z" stroke="black" stroke-width="5" stroke-miterlimit="10"/>
<path d="M400.903 410.085L453.452 390.976C453.452 390.976 441.509 364.701 443.898 345.593C446.286 326.484 458.229 283.49 458.229 283.49C458.229 283.49 446.286 271.547 446.286 252.439C446.286 233.33 451.062 221.388 451.062 221.388C451.062 221.388 427.177 221.388 417.622 207.056C408.067 192.725 417.622 154.508 417.622 154.508H384.181V159.285C384.181 159.285 386.569 183.17 384.181 199.89C382.154 214.077 365.072 221.387 355.519 221.387C355.519 221.387 360.295 238.107 360.295 254.827C360.295 271.547 347.622 284.372 347.622 284.372C347.622 284.372 360.295 331.261 360.295 345.593C360.295 359.925 348.353 390.976 348.353 390.976L374.627 417.251L400.903 410.085Z" fill="white" stroke="black" stroke-width="5" stroke-miterlimit="10"/>
<path d="M400.903 410.085L453.452 390.976C453.452 390.976 441.509 364.701 443.898 345.593C446.286 326.484 458.229 283.49 458.229 283.49C458.229 283.49 446.286 271.547 446.286 252.439C446.286 233.33 451.062 221.388 451.062 221.388C451.062 221.388 427.177 221.388 417.622 207.056C408.067 192.725 417.622 154.508 417.622 154.508H384.181V159.285C384.181 159.285 386.569 183.17 384.181 199.89C382.154 214.077 365.072 221.387 355.519 221.387C355.519 221.387 360.295 238.107 360.295 254.827C360.295 271.547 347.622 284.372 347.622 284.372C347.622 284.372 360.295 331.261 360.295 345.593C360.295 359.925 348.353 390.976 348.353 390.976L374.627 417.251L400.903 410.085Z" stroke="black" stroke-width="5" stroke-miterlimit="10"/>
<path d="M451.064 221.388C463.007 221.388 474.949 240.497 482.115 276.325C489.666 314.092 498.834 352.759 491.669 367.091C484.505 381.423 405.681 314.542 403.291 304.988V269.16C403.291 264.383 403.291 259.606 405.681 259.606C410.458 259.606 410.971 271.736 412.847 281.103C415.235 293.045 415.235 297.823 417.624 302.6C422.156 311.664 460.618 328.875 467.784 333.652L458.229 283.492C446.493 276.159 439.842 262.884 440.989 249.093C441.334 244.984 442.359 240.964 444.038 237.194L451.064 221.388Z" fill="white" stroke="black" stroke-width="5" stroke-miterlimit="10"/>
<path d="M451.064 221.388C463.007 221.388 474.949 240.497 482.115 276.325C489.666 314.092 498.834 352.759 491.669 367.091C484.505 381.423 405.681 314.542 403.291 304.988V269.16C403.291 264.383 403.291 259.606 405.681 259.606C410.458 259.606 410.971 271.736 412.847 281.103C415.235 293.045 415.235 297.823 417.624 302.6C422.156 311.664 460.618 328.875 467.784 333.652L458.229 283.492C446.493 276.159 439.842 262.884 440.989 249.093C441.334 244.984 442.359 240.964 444.038 237.194L451.064 221.388Z" stroke="black" stroke-width="5" stroke-miterlimit="10"/>
<path d="M364.342 611.606C339.401 619.919 332.854 589.928 331.324 575.834C330.996 572.797 330.598 569.786 330.151 566.76C322.917 517.799 348.353 390.977 348.353 390.977C348.353 390.977 378.329 397.89 402.033 398.131C423.472 397.89 453.451 390.977 453.451 390.977C453.451 390.977 460.618 405.309 465.394 436.359C470.171 467.411 465.394 527.125 458.227 570.119C453.835 596.46 441.507 639.387 439.118 668.05C436.73 696.713 431.953 734.931 431.953 744.484C431.953 754.039 436.728 775.535 439.118 782.701C441.507 789.868 434.343 794.645 424.787 794.645C415.233 794.645 403.289 794.645 405.678 785.09C408.066 775.535 408.066 770.759 408.066 758.816C408.066 746.872 405.678 670.439 405.678 651.33C405.678 632.222 403.289 567.817 403.289 570.12C403.291 570.119 385.839 604.441 364.342 611.606Z" fill="white" stroke="black" stroke-width="5" stroke-miterlimit="10"/>
<path d="M364.342 611.606C339.401 619.919 332.854 589.928 331.324 575.834C330.996 572.797 330.598 569.786 330.151 566.76C322.917 517.799 348.353 390.977 348.353 390.977C348.353 390.977 378.329 397.89 402.033 398.131C423.472 397.89 453.451 390.977 453.451 390.977C453.451 390.977 460.618 405.309 465.394 436.359C470.171 467.411 465.394 527.125 458.227 570.119C453.835 596.46 441.507 639.387 439.118 668.05C436.73 696.713 431.953 734.931 431.953 744.484C431.953 754.039 436.728 775.535 439.118 782.701C441.507 789.868 434.343 794.645 424.787 794.645C415.233 794.645 403.289 794.645 405.678 785.09C408.066 775.535 408.066 770.759 408.066 758.816C408.066 746.872 405.678 670.439 405.678 651.33C405.678 632.222 403.289 567.817 403.289 570.12C403.291 570.119 385.839 604.441 364.342 611.606Z" stroke="black" stroke-width="5" stroke-miterlimit="10"/>
<path d="M365.415 219.621C379.404 230.943 400.9 230.943 400.9 230.943C400.9 230.943 422.59 232.184 438.022 219.621" stroke="black" stroke-width="5" stroke-miterlimit="10"/>
<path d="M407.507 732.154C415.233 734.931 428.816 734.153 432.774 732.154" stroke="black" stroke-width="5" stroke-miterlimit="10"/>
<path d="M364.342 561.446C364.342 561.446 369.119 537.559 426.446 506.509C426.446 506.509 445.555 494.566 447.943 482.623C450.331 470.68 450.331 446.795 462.275 451.572C469.78 454.571 478.229 454.04 485.303 450.126C490.355 447.332 496.162 439.408 500.492 437.241C510.046 432.465 531.543 427.687 517.212 449.184C504.713 467.93 486.161 480.235 476.606 489.789C467.052 499.343 402.56 571 402.56 571" fill="white"/>
<path d="M364.342 561.446C364.342 561.446 369.119 537.559 426.446 506.509C426.446 506.509 445.555 494.566 447.943 482.623C450.331 470.68 450.331 446.795 462.275 451.572C469.78 454.571 478.229 454.04 485.303 450.126C490.355 447.332 496.162 439.408 500.492 437.241C510.046 432.465 531.543 427.687 517.212 449.184C504.713 467.93 486.161 480.235 476.606 489.789C467.052 499.343 402.56 571 402.56 571" stroke="black" stroke-width="5" stroke-miterlimit="10"/>
<path d="M364.342 561.446C364.342 561.446 369.119 537.559 426.446 506.509C426.446 506.509 445.555 494.566 447.943 482.623C450.331 470.68 450.331 446.795 462.275 451.572C469.78 454.571 478.229 454.04 485.303 450.126C490.355 447.332 496.162 439.408 500.492 437.241C510.046 432.465 531.543 427.687 517.212 449.184C504.713 467.93 486.161 480.235 476.606 489.789C467.052 499.343 402.56 571 402.56 571" stroke="black" stroke-width="5" stroke-miterlimit="10"/>
<path d="M403.291 520.442L402.556 477.847" stroke="black" stroke-width="5" stroke-miterlimit="10"/>
<path d="M403.291 520.442L402.556 477.847" stroke="black" stroke-width="5" stroke-miterlimit="10"/>
<path d="M347.622 284.372L342.845 272.429" stroke="black" stroke-width="5" stroke-miterlimit="10"/>
<path d="M347.622 284.372L342.845 272.429" stroke="black" stroke-width="5" stroke-miterlimit="10"/>
<path d="M373.261 112.685C356.026 148.411 383.232 191.321 398.887 191.527C414.538 191.734 442.865 149.557 426.578 113.39C416.31 90.5908 384.124 90.1684 373.261 112.685Z" fill="white" stroke="black" stroke-width="5" stroke-miterlimit="10"/>
<path d="M373.261 112.685C356.026 148.411 383.232 191.321 398.887 191.527C414.538 191.734 442.865 149.557 426.578 113.39C416.31 90.5908 384.124 90.1684 373.261 112.685Z" stroke="black" stroke-width="5" stroke-miterlimit="10"/>
<path d="M500.424 155.703C486.682 148.154 490.166 138.479 477.975 128.804C465.78 119.126 450.68 125.662 444.3 110.029C437.981 94.5404 417.394 85.6974 399.45 85.9125C399.441 85.9125 399.432 85.9125 399.425 85.9125C399.415 85.9125 399.405 85.9125 399.395 85.9125C381.452 85.6974 360.865 94.5404 354.549 110.029C348.172 125.662 333.066 119.126 320.876 128.804C308.683 138.479 312.166 148.154 298.425 155.703C284.684 163.252 283.566 162.554 284.103 168.476C284.896 177.217 316.146 173.759 339.579 174.357C344.17 174.476 360.903 179.125 365.377 180.175C374.528 182.318 386.281 182.013 386.523 178.733C386.913 173.508 385.235 161.077 381.671 154.714C378.103 148.351 370.741 150.406 370.741 141.071C370.741 132.361 374.319 135.75 382.539 128.006C389.791 121.178 397.05 113.269 399.425 106.847C401.798 113.268 409.058 121.178 416.308 128.006C424.529 135.75 428.108 132.361 428.108 141.071C428.108 150.406 420.744 148.35 417.175 154.714C413.61 161.077 411.935 173.508 412.323 178.733C412.568 182.013 424.324 182.318 433.473 180.175C437.947 179.125 454.676 174.476 459.274 174.357C482.705 173.759 513.953 177.217 514.747 168.476C515.282 162.554 514.165 163.251 500.424 155.703Z" fill="#040004" stroke="black" stroke-width="5" stroke-miterlimit="10"/>
<path d="M432.774 501.977C432.774 501.977 446.029 505.835 448.776 519.905" stroke="black" stroke-width="5" stroke-miterlimit="10"/>
</svg>
